X:1
T:Haynt iz Purim, Brider!   [Dm]
C:melody: A.Goldfaden
N: Purim
M:2/4
L:1/8
Z:2009 John Chambers <jc:trillian.mit.edu>
K:Dm
|:::\
"Dm"DF AG | "Gm"F G2 F | "A7"AG FE |\
[1,3 "Dm"[F4D4] :|[2,4 "Dm"D4 :|\
[M:6/8][L:1/8] |: \
"Dm"{A}ABc d2A | "Dm"ABc d2A |
"Dm"ddc "D7"BBA | "Gm"G3- G2G |\
"C7"GAB "F"c2F | "F"FGA "C7"B2E |\
"A7"AAG FFE | "Dm"D3- D3 :|
